X:1
T:Title
%%score { ( 1 3 ) | ( 2 4 ) }
L:1/8
M:4/4
K:Eb
V:1 treble nm="Grand Piano"
V:3 treble 
V:2 bass 
V:4 bass 
V:1
 z4 z2[Q:1/4=100] Bc | B2 GE B,2 G2 | [DF]2 [DG]2 E2 GA | B2 c2 F2 [DB]2 | G6 GG | %5
 F2 A2 [Dd]2 [Fc][Fc] |[M:3/4] [GB]2 E2 A2 |[M:1/4] GF |[M:4/4] E2 G2 [DG]2 [DF]2 | E6 G2 | %10
 [DF]2 [FA]2 [FA]3 [DF] | [EG]2 [GB]2 [GB]3 [GB] | c2 A2 e2 c2 | B2 G2 z A, z F | %14
 G2 [GB]2 [GB]3 E |[M:9/8] A2 c- c e2- e c2 | %16
[M:4/4] B2 c2 B2 E2[Q:1/4=99][Q:1/4=97][Q:1/4=96][Q:1/4=94][Q:1/4=93][Q:1/4=91][Q:1/4=90][Q:1/4=88][Q:1/4=87][Q:1/4=85][Q:1/4=84][Q:1/4=82][Q:1/4=81][Q:1/4=79][Q:1/4=78][Q:1/4=76] | %17
[M:7/8] [CEF]2 [B,DG]2 [G,E]3 |] %18
V:2
 z4 z2 [E,G,E][E,A,E] | [E,G,E]2 [E,B,E][E,A,C] [E,G,]2 [E,B,E]2 | %2
 [B,,A,]2 [B,,B,]2 [E,G,]2 [E,B,E][F,B,E] | [G,B,E]2 [=A,E_G]2[K:bass] [B,E]2 [B,,B,]2 | %4
 [E,B,E]6 [E,B,E][E,B,E] | [F,A,E]2 [F,CE]2 [B,,B,]2 [D,A,][D,A,] | %6
[M:3/4] [E,G,]2 [E,G,]2 [E,CE]2 |[M:1/4] [E,B,E][E,A,E] | %8
[M:4/4] [E,G,]2 [E,B,E]2 [B,,B,]2 [B,,A,]2 | [E,G,]6 [E,B,E]2 | %10
 [B,,B,]2 [B,,B,]2 [B,,B,]3 [B,,B,] | [E,B,]2 [E,E]2 [E,E]3 [E,E] | [A,EA]2 [A,C]2 [A,CA]2 [A,E]2 | %13
 [G,B,E]2[K:bass] [E,B,E]2 .[B,,B,]2 E,-[E,A,] | [E,B,E]2 [E,E]2 [E,E]3[K:treble] [G,_D] | %15
[M:9/8] [A,CE]2 [A,E]- [A,E] [A,CA]2- [A,CA][K:bass] [A,E]2 | %16
[M:4/4] [E,G,E]2 [E,A,E]2 [E,G,E]2 [C,G,]2 |[M:7/8] A,,2 A,,2 E,3 |] %18
V:3
 x8 | x8 | x8 | x8 | x8 | x8 |[M:3/4] x6 |[M:1/4] x2 |[M:4/4] x8 | x8 | x8 | x8 | x8 | %13
 z4 [DF]2 E2 | x8 |[M:9/8] x9 |[M:4/4] x8 |[M:7/8] x7 |] %18
V:4
 x8 | x8 | x8 | x4[K:bass] x4 | x8 | x8 |[M:3/4] x6 |[M:1/4] x2 |[M:4/4] x8 | x8 | x8 | x8 | x8 | %13
 z4[K:bass] z2 .G,2 | x7[K:treble] x |[M:9/8] x7[K:bass] x2 |[M:4/4] x8 |[M:7/8] x7 |] %18

